<?xml version="1.0" encoding="UTF-8"?>
<map version="1.10" tiledversion="1.11.2" orientation="orthogonal" renderorder="right-down" width="50" height="34" tilewidth="8" tileheight="8" infinite="0" nextlayerid="2" nextobjectid="1">
 <editorsettings>
  <export target="../../server/src/maps/mountains_entrance.csv" format="csv"/>
 </editorsettings>
 <tileset firstgid="1" source="tiles.tsx"/>
 <layer id="1" name="Tile Layer 1" width="50" height="34">
  <data encoding="csv">
18,18,18,18,18,1,1,1,1,7,1,1,18,18,18,18,18,18,18,18,18,18,18,18,18,18,18,18,18,18,18,18,18,18,18,18,18,18,18,18,18,18,18,18,18,18,18,18,18,18,
18,18,18,18,18,1,1,1,1,7,1,1,18,18,18,18,18,18,18,18,18,18,18,18,18,18,18,18,18,18,18,18,18,18,18,18,18,18,18,18,18,18,18,18,18,18,18,18,18,18,
18,18,18,18,18,1,1,1,1,7,1,1,20,18,18,18,19,18,18,18,18,18,18,18,18,18,18,18,19,18,18,19,18,18,18,18,18,18,18,18,18,18,18,18,18,18,18,18,18,18,
18,18,19,18,18,1,1,1,1,7,1,1,1,18,18,18,18,18,18,18,18,18,18,18,18,18,18,18,18,18,18,18,18,18,18,18,18,18,18,18,18,18,18,18,18,18,18,18,18,18,
18,18,18,18,20,1,1,1,1,7,1,1,1,1,18,18,18,18,19,18,18,18,18,18,18,18,19,18,18,18,18,18,18,18,18,18,18,18,18,18,18,18,19,19,18,18,18,18,18,18,
18,18,18,1,1,1,1,1,7,7,1,1,1,1,18,18,18,18,18,18,18,18,18,18,19,18,18,18,18,18,18,18,18,18,18,18,18,18,18,18,18,18,18,18,18,18,18,19,18,18,
18,18,18,1,1,1,1,1,7,1,1,20,1,18,18,18,18,18,19,18,18,19,18,18,19,18,18,18,18,18,18,18,18,18,19,18,18,18,19,18,18,18,18,18,18,18,18,18,18,18,
18,18,18,1,1,1,1,1,7,1,1,1,1,18,18,18,19,18,18,18,18,18,18,18,18,18,18,18,18,18,18,18,18,18,19,19,18,18,18,18,18,18,18,18,18,18,18,18,18,18,
18,18,18,1,1,18,1,1,7,1,1,1,1,18,18,18,18,18,18,18,18,19,18,18,18,18,18,18,18,19,18,18,18,18,18,18,18,18,18,18,18,18,18,18,18,18,18,18,18,18,
18,18,18,1,1,1,1,1,7,1,1,1,1,18,18,19,18,18,18,18,18,18,18,18,18,19,18,18,18,18,18,18,18,18,18,18,18,18,18,18,18,18,18,18,18,18,18,18,18,18,
18,19,18,1,1,1,1,1,7,1,1,1,1,18,18,18,18,18,18,18,18,18,18,18,18,18,18,19,18,18,18,18,18,18,18,18,18,18,18,18,18,18,18,18,18,18,18,18,18,18,
18,18,18,1,1,1,1,1,7,7,1,1,1,18,18,18,19,18,18,18,18,18,18,18,18,18,18,18,18,18,18,18,18,18,18,18,18,18,18,18,18,18,18,18,18,18,18,18,18,18,
18,18,18,1,1,1,1,1,1,7,1,1,1,18,18,18,18,18,18,18,17,17,17,18,18,18,18,18,18,18,18,18,18,18,18,18,18,18,19,18,18,18,18,18,18,18,18,18,18,18,
18,18,18,1,1,1,1,1,1,7,1,1,1,1,18,18,18,18,18,18,17,1,17,18,18,18,18,18,18,18,18,18,18,18,18,18,18,18,18,18,18,19,18,18,18,18,18,18,18,18,
18,18,18,1,1,18,1,1,1,7,1,1,1,1,20,18,18,18,18,17,17,23,17,17,18,18,18,18,18,18,18,18,18,19,18,18,19,18,18,18,18,18,18,18,18,19,18,18,18,18,
18,18,18,20,1,1,1,1,7,7,1,1,1,1,1,1,1,1,1,1,1,8,1,1,1,18,18,18,18,18,18,18,18,18,18,18,18,18,18,9,9,18,18,18,18,18,18,18,18,19,
18,18,18,18,1,1,1,1,7,1,1,1,1,1,1,1,1,1,1,1,1,7,1,1,1,1,18,18,18,18,18,18,18,18,18,18,18,18,9,9,9,9,18,18,18,18,18,18,18,19,
18,18,18,18,1,1,1,1,7,1,1,1,1,1,1,1,18,1,1,1,7,1,1,1,1,1,1,1,1,18,18,20,1,1,1,1,9,9,9,9,9,9,9,18,18,18,18,18,18,18,
18,18,18,18,1,1,1,1,1,7,1,1,20,1,1,1,1,1,1,1,7,1,1,1,1,1,1,1,1,1,1,1,1,1,1,1,1,9,9,9,9,9,9,9,1,18,18,18,18,18,
18,18,19,18,1,1,1,1,1,7,1,1,1,1,1,1,1,1,1,1,7,1,1,1,1,1,1,1,1,1,1,1,1,1,1,20,1,1,9,9,9,9,1,1,1,18,18,19,18,18,
18,18,18,18,18,1,1,1,1,7,7,1,1,1,1,1,1,1,1,7,1,1,1,1,1,1,1,1,1,1,1,1,1,1,1,1,1,1,1,1,1,1,1,1,1,20,18,18,18,18,
18,18,18,18,18,1,1,1,1,1,7,1,1,1,1,1,7,7,7,7,7,7,7,1,1,1,1,1,1,1,20,1,1,1,1,1,1,1,1,1,1,1,1,1,1,1,18,18,18,18,
18,18,18,18,18,18,1,18,1,1,7,7,1,1,7,7,7,1,1,1,1,1,7,7,7,1,1,1,1,1,1,1,1,1,1,1,1,1,1,1,1,1,18,1,1,1,18,18,18,18,
18,18,18,19,18,18,1,1,1,1,1,7,7,7,1,1,1,1,1,1,1,1,1,1,7,7,1,1,1,1,1,1,1,1,1,1,1,1,18,1,1,1,1,1,1,1,1,18,18,18,
19,18,18,18,18,18,1,1,1,1,7,7,1,1,1,1,1,1,1,1,1,1,1,1,1,1,7,7,7,1,1,1,1,7,1,1,1,1,1,1,1,1,1,1,1,1,1,18,18,18,
18,18,18,18,18,18,18,1,1,1,7,1,1,1,1,18,1,1,18,18,20,1,1,1,1,1,1,1,1,7,1,1,1,1,1,1,1,1,1,1,1,1,1,1,1,1,1,18,18,18,
18,18,18,19,18,19,18,1,1,1,7,1,1,1,1,1,1,18,18,18,18,18,1,1,1,1,1,1,1,1,1,7,1,1,1,1,20,1,1,1,1,1,1,20,1,1,20,18,18,18,
18,18,18,18,18,18,18,1,1,7,1,1,1,18,18,18,20,18,18,19,18,18,18,1,1,1,1,18,1,1,1,1,1,1,1,1,1,1,1,18,1,1,1,1,1,1,18,18,18,18,
18,18,18,18,18,18,18,1,7,7,1,1,20,18,18,18,18,18,18,18,19,18,18,18,1,1,1,1,1,1,1,1,1,1,1,1,1,1,1,1,1,1,1,1,1,1,18,18,18,18,
18,18,18,18,18,18,18,1,7,1,20,18,18,19,18,19,18,18,18,18,18,18,19,18,18,18,18,1,1,1,1,1,1,1,1,1,1,1,1,1,1,1,1,1,20,18,18,18,18,18,
18,18,18,19,18,18,1,1,7,1,18,18,18,18,18,18,18,18,18,18,18,18,18,18,18,18,18,18,18,1,1,1,1,1,18,1,1,1,1,1,1,1,1,18,18,18,18,18,19,18,
18,18,18,18,18,1,1,1,7,1,18,18,18,18,19,18,18,18,18,18,18,18,18,18,18,18,18,19,18,18,18,1,1,1,1,1,1,18,20,1,1,1,18,18,18,18,18,18,19,18,
18,18,19,18,1,1,1,7,7,1,19,18,18,19,18,18,18,18,18,18,18,18,18,19,18,18,18,18,18,18,18,18,18,18,18,18,18,19,18,18,18,18,18,18,18,18,18,18,18,18,
19,18,19,1,1,1,7,7,1,1,18,18,18,18,18,18,18,18,18,18,18,18,18,18,18,18,18,18,18,18,18,18,18,18,18,18,18,18,18,18,18,18,18,18,19,18,18,18,18,18
</data>
 </layer>
</map>
